X:2176
T:Gyn ennym (No title) 
C:Traditional
O:Isle of Man
C:F Stowell 
Z:Clague Collection
B:Kiaull Vannin #176 
M:4/4 
L:1/8 
K:G 
B>A|G2 E2 E2 D2|G2 G2 A2 G>A|B2 e2 d2 B>A|G2 E2 !fine!E2:|
Bc|d3 e d2 Bc|d3 e d2 d2| e2 e2 eg fe|d2!D.C.! B2 !fine!A2||

